Icons/SVG/brands/rss.svg

<?xml version="1.0" encoding="UTF-8"?><svg id="RSS" xmlns="http://www.w3.org/2000/svg" viewBox="0 0 24 24"><path d="m22,2v-1H2v1h-1v20h1v1h20v-1h1V2h-1Zm-6,16v-3h-1v-2h-1v-1h-1v-1h-1v-1h-1v-1h-2v-1h-2v-1h-3v-3h3v1h2v1h2v1h2v1h1v1h1v1h1v1h1v2h1v2h1v2h1v3h-3v-2h-1Zm-5,0v-2h-1v-1h-1v-1h-1v-1h-2v-1h-2v-3h2v1h2v1h2v1h1v1h1v1h1v2h1v2h1v2h-3v-2h-1Zm-7,1v-3h1v-1h3v1h1v3h-1v1h-3v-1h-1Z"/></svg>

<svg width="24" height="24" viewBox="0 0 24 24" fill="none" xmlns="http://www.w3.org/2000/svg">
<path d="M22 2V1H2V2H1V22H2V23H22V22H23V2H22ZM16 18V15H15V13H14V12H13V11H12V10H11V9H9V8H7V7H4V4H7V5H9V6H11V7H13V8H14V9H15V10H16V11H17V13H18V15H19V17H20V20H17V18H16ZM11 18V16H10V15H9V14H8V13H6V12H4V9H6V10H8V11H10V12H11V13H12V14H13V16H14V18H15V20H12V18H11ZM4 19V16H5V15H8V16H9V19H8V20H5V19H4Z" fill="black"/>
</svg>
